X:1
T:Benedictus
T:Arranged by Elizabeth Purvis
T:Come Thou Fount 
C:Arranged by Elizabeth Purvis
%%score 1 2 3
L:1/8
Q:1/4=65
M:3/4
K:G
V:1 treble nm="Violin" snm="Vln."
V:2 treble nm="Violin" snm="Vln."
V:3 bass nm="Violoncello" snm="Vc."
V:1
"^\n" z2 | z6 | z6 | z6 | z4!mf! (vBA) | G2 G2 (Bd) | A2 A2 (Bd) | e2 d2 (BA) | %8
!<(! G4 (DE/F/)!<)! | G2 F2 (ED) | (ED) B,2 (DE/F/) | (G2 F2) (ED) | G4 (B,A,) | G,2 G,2 (B,D) | %14
 A,2 A,2 (B,D) | E2 D2 (B,A,) |!>(! G,4 z2!>)! | z6 | z6 | z4!f! (vBA) | G2 G2 (Bd) | A2 A2 (Bd) | %22
 e2 d2 (BA) | G4 (BA) | G2 G2 (Bd) | A2 A2 (Bd) | e2 d2 (BA) | G4 (de/f/) | g2 f2 (ed) | %29
 (ed) B2 (de/f/) | (g2 f2) (ed) | g4!mf! (vBA) | G2 G2 (Bd) | A2 A2 (Bd) | e2 d2!>(! (BA) | %35
 G4!>)! z2 | z6 | z6 | z6 | z6 |] %40
V:2
 z2 | z6 | z6 | z6 | z4!mp! (D2 | D2) D2 (G2 | G2) F2 D2 | G4 (GD) |!<(! B,4 C2!<)! | D4 G,2 | %10
 A,2 G,2 C2 | D4 (C2 | C2) B,2 z2 | z4 (uG2 | G2) F2 D2 | G,4 (G,D) | D4 C2 | D4 D2 | B,4 C2 | %19
 D4 D2 | B,4 C2 | D4 D2 | E2 G2 D2 | D4 D2 | B,4 C2 | D2 (E4 | E2) G2 (uGD) | D4 D2 | B,4 G2 | %29
 F2 D2 c2 | d4!>(! (c2 | c2) B2!>)!!mp! (D2 | D2) D2 (G2 | G2) F2 D2 | G4 (uCD) | B,4 C2 | D4 D2 | %37
"^rit." B,4!>(! C2 | D4 D2 | !fermata!B,6!>)! |] %40
V:3
!f! (vB,A,) | G,2 G,2 (B,D) | A,2 A,2 (B,D) | E2 D2 (B,A,) | G,4!mp! (G,D,) | B,,2 B,,2 C,2 | %6
 D,2 D,2 G,,2 | C,4 D,2 |!<(! G,,4 A,,2!<)! | B,,4 C,2 | D,2 E,2 uF,2 | G,4 D,2 | G,4 (G,D,) | %13
 B,,4 C,,2 | D,,4 (G,,B,,) | C,4 D,2 | G,4 E,2 | F,4 F,2 | D,4 E,2 | F,4 F,2 | D,4 E,2 | %21
 F,4 (F,A,) | C2 B,2 A,2 | B,4 ([G,,D,]2 | [G,,D,]6) | [G,,D,]6 | [G,,D,]6 | [G,,D,]4 uF,,2 | %28
 E,,4 C,,2 | D,,2 G,,2 A,,2 | B,,2 D,2!>(! C,2 | G,,4!>)!!mp! (G,D,) | B,,2 B,,2 C,2 | %33
 D,2 D,2 G,,2 | C,4 D,2 | G,,4 E,2 | F,4 F,2 |"^rit." D,4!>(! E,2 | F,4 F,2 | %39
 !fermata![G,,D,]6!>)! |] %40

